img/Header/instagram.svg

<svg width="30" height="30" viewBox="0 0 30 30" fill="none" xmlns="http://www.w3.org/2000/svg">
<path d="M27.9817 9.64409C27.9208 8.26261 27.6974 7.31285 27.3774 6.48987C27.0472 5.6163 26.5393 4.8342 25.8739 4.18403C25.2237 3.52374 24.4364 3.01067 23.573 2.68568C22.7452 2.36566 21.8004 2.14226 20.419 2.08135C19.0272 2.01528 18.5853 2 15.0553 2C11.5253 2 11.0835 2.01528 9.69683 2.07619C8.31534 2.1371 7.36559 2.3607 6.54281 2.68052C5.66904 3.01067 4.88693 3.51858 4.23676 4.18403C3.57647 4.8342 3.0636 5.62146 2.73842 6.48491C2.41839 7.31285 2.19499 8.25745 2.13408 9.63894C2.06801 11.0307 2.05273 11.4726 2.05273 15.0026C2.05273 18.5326 2.06801 18.9744 2.12892 20.3611C2.18983 21.7425 2.41343 22.6923 2.73346 23.5153C3.0636 24.3889 3.57647 25.171 4.23676 25.8211C4.88693 26.4814 5.6742 26.9945 6.53765 27.3195C7.36559 27.6395 8.31019 27.8629 9.69187 27.9238C11.0783 27.9849 11.5204 28 15.0504 28C18.5804 28 19.0222 27.9849 20.4088 27.9238C21.7903 27.8629 22.7401 27.6395 23.5629 27.3195C25.3102 26.6439 26.6917 25.2624 27.3673 23.5153C27.6871 22.6873 27.9107 21.7425 27.9716 20.3611C28.0325 18.9744 28.0478 18.5326 28.0478 15.0026C28.0478 11.4726 28.0426 11.0307 27.9817 9.64409ZM25.6403 20.2595C25.5844 21.5293 25.3711 22.2149 25.1933 22.6721C24.7565 23.8048 23.8575 24.7037 22.7248 25.1406C22.2677 25.3184 21.577 25.5317 20.3122 25.5874C18.9409 25.6485 18.5296 25.6636 15.0605 25.6636C11.5914 25.6636 11.1749 25.6485 9.80853 25.5874C8.53875 25.5317 7.85306 25.3184 7.39594 25.1406C6.83228 24.9323 6.31921 24.6021 5.90276 24.1704C5.47103 23.7488 5.14089 23.2409 4.93256 22.6772C4.75479 22.2201 4.54151 21.5293 4.48576 20.2646C4.42465 18.8933 4.40957 18.4818 4.40957 15.0127C4.40957 11.5436 4.42465 11.1272 4.48576 9.76095C4.54151 8.49117 4.75479 7.80549 4.93256 7.34837C5.14089 6.7845 5.47103 6.27163 5.90792 5.85498C6.32932 5.42326 6.83724 5.09311 7.4011 4.88499C7.85822 4.70722 8.54906 4.49393 9.81369 4.43798C11.1851 4.37707 11.5965 4.3618 15.0654 4.3618C18.5397 4.3618 18.951 4.37707 20.3174 4.43798C21.5872 4.49393 22.2728 4.70722 22.73 4.88499C23.2936 5.09311 23.8067 5.42326 24.2231 5.85498C24.6549 6.27659 24.985 6.7845 25.1933 7.34837C25.3711 7.80549 25.5844 8.49613 25.6403 9.76095C25.7013 11.1323 25.7165 11.5436 25.7165 15.0127C25.7165 18.4818 25.7013 18.8881 25.6403 20.2595Z" fill="url(#paint0_linear_212_97)"/>
<path d="M15.055 8.32355C11.3677 8.32355 8.37598 11.3151 8.37598 15.0026C8.37598 18.6901 11.3677 21.6817 15.055 21.6817C18.7426 21.6817 21.7341 18.6901 21.7341 15.0026C21.7341 11.3151 18.7426 8.32355 15.055 8.32355ZM15.055 19.3351C12.6629 19.3351 10.7225 17.395 10.7225 15.0026C10.7225 12.6103 12.6629 10.6701 15.055 10.6701C17.4474 10.6701 19.3876 12.6103 19.3876 15.0026C19.3876 17.395 17.4474 19.3351 15.055 19.3351Z" fill="url(#paint1_linear_212_97)"/>
<path d="M23.5582 8.05944C23.5582 8.92051 22.86 9.61869 21.9987 9.61869C21.1376 9.61869 20.4395 8.92051 20.4395 8.05944C20.4395 7.19817 21.1376 6.50018 21.9987 6.50018C22.86 6.50018 23.5582 7.19817 23.5582 8.05944Z" fill="url(#paint2_linear_212_97)"/>
<defs>
<linearGradient id="paint0_linear_212_97" x1="-0.438803" y1="-9.14286" x2="29.874" y2="-7.9256" gradientUnits="userSpaceOnUse">
<stop stop-color="#00B292"/>
<stop offset="0.290505" stop-color="#2DFFD9"/>
<stop offset="0.635914" stop-color="#54FFE0"/>
<stop offset="0.978018" stop-color="#03776F"/>
</linearGradient>
<linearGradient id="paint1_linear_212_97" x1="7.09565" y1="2.59864" x2="22.6725" y2="3.22427" gradientUnits="userSpaceOnUse">
<stop stop-color="#00B292"/>
<stop offset="0.290505" stop-color="#2DFFD9"/>
<stop offset="0.635914" stop-color="#54FFE0"/>
<stop offset="0.978018" stop-color="#03776F"/>
</linearGradient>
<linearGradient id="paint2_linear_212_97" x1="20.1405" y1="5.16368" x2="23.7772" y2="5.30976" gradientUnits="userSpaceOnUse">
<stop stop-color="#00B292"/>
<stop offset="0.290505" stop-color="#2DFFD9"/>
<stop offset="0.635914" stop-color="#54FFE0"/>
<stop offset="0.978018" stop-color="#03776F"/>
</linearGradient>
</defs>
</svg>

<svg width="30" height="30" fill="none" xmlns="http://www.w3.org/2000/svg"><path d="M27.982 9.644c-.061-1.381-.285-2.331-.605-3.154a6.346 6.346 0 00-1.503-2.306 6.4 6.4 0 00-2.301-1.498c-.828-.32-1.773-.544-3.154-.605C19.027 2.015 18.585 2 15.055 2s-3.971.015-5.358.076c-1.382.061-2.331.285-3.154.605a6.344 6.344 0 00-2.306 1.503 6.401 6.401 0 00-1.499 2.3c-.32.829-.543 1.773-.604 3.155-.066 1.392-.081 1.834-.081 5.364s.015 3.971.076 5.358c.06 1.381.284 2.331.604 3.154a6.41 6.41 0 001.504 2.306 6.399 6.399 0 002.3 1.498c.829.32 1.773.544 3.155.605 1.386.06 1.828.076 5.358.076 3.53 0 3.972-.015 5.359-.076 1.381-.061 2.331-.284 3.154-.604a6.65 6.65 0 003.804-3.805c.32-.828.544-1.773.605-3.154.06-1.387.076-1.828.076-5.358 0-3.53-.005-3.972-.066-5.359zM25.64 20.26c-.056 1.27-.269 1.956-.447 2.413a4.313 4.313 0 01-2.468 2.469c-.457.177-1.148.39-2.413.446-1.371.061-1.782.077-5.252.077-3.469 0-3.885-.016-5.251-.077-1.27-.055-1.956-.269-2.413-.446a4 4 0 01-1.493-.97 4.042 4.042 0 01-.97-1.494c-.178-.457-.391-1.148-.447-2.412-.061-1.372-.076-1.783-.076-5.252 0-3.47.015-3.886.076-5.252.056-1.27.269-1.956.447-2.413a3.952 3.952 0 01.975-1.493c.421-.432.93-.762 1.493-.97.457-.178 1.148-.391 2.413-.447 1.371-.06 1.783-.076 5.251-.076 3.475 0 3.886.015 5.252.076 1.27.056 1.956.27 2.413.447a3.998 3.998 0 011.493.97c.432.422.762.93.97 1.493.178.457.391 1.148.447 2.413.061 1.371.076 1.783.076 5.252s-.015 3.875-.076 5.246z" fill="url(#paint0_linear_212_97)"/><path d="M15.055 8.324a6.68 6.68 0 00-6.679 6.679 6.68 6.68 0 006.679 6.679 6.68 6.68 0 006.68-6.68 6.68 6.68 0 00-6.68-6.678zm0 11.011a4.333 4.333 0 11.001-8.666 4.333 4.333 0 01-.001 8.666z" fill="url(#paint1_linear_212_97)"/><path d="M23.558 8.06a1.56 1.56 0 11-3.119 0 1.56 1.56 0 013.12 0z" fill="url(#paint2_linear_212_97)"/><defs><linearGradient id="paint0_linear_212_97" x1="-.439" y1="-9.143" x2="29.874" y2="-7.926" gradientUnits="userSpaceOnUse"><stop stop-color="#00B292"/><stop offset=".291" stop-color="#2DFFD9"/><stop offset=".636" stop-color="#54FFE0"/><stop offset=".978" stop-color="#03776F"/></linearGradient><linearGradient id="paint1_linear_212_97" x1="7.096" y1="2.599" x2="22.672" y2="3.224" gradientUnits="userSpaceOnUse"><stop stop-color="#00B292"/><stop offset=".291" stop-color="#2DFFD9"/><stop offset=".636" stop-color="#54FFE0"/><stop offset=".978" stop-color="#03776F"/></linearGradient><linearGradient id="paint2_linear_212_97" x1="20.14" y1="5.164" x2="23.777" y2="5.31" gradientUnits="userSpaceOnUse"><stop stop-color="#00B292"/><stop offset=".291" stop-color="#2DFFD9"/><stop offset=".636" stop-color="#54FFE0"/><stop offset=".978" stop-color="#03776F"/></linearGradient></defs></svg>
